lib/icons/user.svg

<svg width="18" height="17" viewBox="0 0 18 17" fill="none" xmlns="http://www.w3.org/2000/svg">
<path fill-rule="evenodd" clip-rule="evenodd" d="M5.64089 5.31725C5.64089 3.50469 7.15198 1.99817 8.98193 1.99817C10.812 1.99817 12.3231 3.5047 12.3231 5.31725C12.3231 5.32423 12.3232 5.3312 12.3235 5.33818C12.3638 6.29992 11.997 7.3937 11.3596 8.24574C10.7206 9.09968 9.87014 9.63656 8.98193 9.63656C8.14631 9.63656 7.31754 9.10723 6.67299 8.24574C6.03236 7.3895 5.64089 6.28782 5.64089 5.31725ZM8.98193 0.998169C6.60511 0.998169 4.64089 2.947 4.64089 5.31725C4.64089 6.529 5.11824 7.83698 5.87229 8.84481C6.62242 9.8474 7.71417 10.6366 8.98193 10.6366C10.2887 10.6366 11.4045 9.85495 12.1602 8.84482C12.9153 7.83566 13.3712 6.5244 13.3231 5.30676C13.3173 2.94124 11.3553 0.998169 8.98193 0.998169ZM4.65167 9.94551C4.89771 9.82015 4.99555 9.51906 4.87019 9.27302C4.74483 9.02697 4.44375 8.92913 4.1977 9.05449C2.30933 10.0166 0.998184 11.9497 0.998184 14.1034C0.998184 14.2788 1.05967 14.6221 1.32125 14.8932C1.36376 14.9373 1.41519 14.9755 1.4446 14.9969C1.48352 15.0252 1.53104 15.0575 1.58586 15.0929C1.69594 15.1637 1.84414 15.2522 2.02807 15.3517C2.39627 15.551 2.91422 15.7982 3.56634 16.0397C4.8707 16.5229 6.71779 16.9859 8.98022 16.9936C11.702 17.0029 13.6012 16.5323 14.835 16.0323C15.4511 15.7827 15.9011 15.5257 16.2041 15.3179C16.355 15.2144 16.4727 15.1208 16.5577 15.0438C16.5993 15.0061 16.6391 14.967 16.6726 14.9284C16.6862 14.9127 16.7046 14.8904 16.7231 14.8635C16.8783 14.684 17.0018 14.4108 17.0018 14.1216C17.0018 11.9798 15.7925 10.0358 13.7931 9.06811C13.5445 8.9478 13.2455 9.05178 13.1252 9.30034C13.0049 9.5489 13.1088 9.84792 13.3574 9.96822C15.0162 10.771 16.0018 12.3681 16.0018 14.1216C16.0018 14.1269 15.9996 14.1464 15.9875 14.1736C15.982 14.1859 15.9762 14.1961 15.9715 14.2031L15.968 14.208C15.943 14.2325 15.9209 14.2595 15.9019 14.2883L15.8863 14.3027C15.8405 14.3442 15.7594 14.4103 15.6385 14.4932C15.3978 14.6583 15.012 14.8816 14.4595 15.1055C13.3561 15.5526 11.5869 16.0025 8.98363 15.9936C6.85634 15.9864 5.12591 15.5511 3.91372 15.102C3.30757 14.8775 2.83249 14.65 2.50399 14.4722C2.33958 14.3833 2.21352 14.3076 2.1273 14.2521C2.08398 14.2242 2.05285 14.2028 2.03309 14.1884L2.03122 14.187C2.02333 14.1758 2.01511 14.1602 2.00823 14.14C2.00363 14.1265 2.00076 14.1141 1.99918 14.1049L1.99819 14.0981C2.00034 12.3586 3.06655 10.7531 4.65167 9.94551Z" fill="#7A859E"/>
</svg>

<svg width="18" height="17" fill="none" xmlns="http://www.w3.org/2000/svg"><path fill-rule="evenodd" clip-rule="evenodd" d="M5.64 5.317c0-1.812 1.512-3.319 3.342-3.319s3.341 1.507 3.341 3.32v.02c.04.962-.326 2.056-.963 2.908-.64.854-1.49 1.39-2.378 1.39-.836 0-1.664-.529-2.309-1.39-.64-.857-1.032-1.958-1.032-2.929ZM8.983.998c-2.377 0-4.341 1.949-4.341 4.32 0 1.211.477 2.519 1.231 3.527.75 1.002 1.842 1.792 3.11 1.792 1.307 0 2.423-.782 3.178-1.792.755-1.01 1.211-2.32 1.163-3.538C13.317 2.94 11.355.998 8.982.998Zm-4.33 8.948a.5.5 0 0 0-.454-.892c-1.889.963-3.2 2.896-3.2 5.05 0 .175.062.518.323.79a.957.957 0 0 0 .124.103c.039.028.086.06.14.096.11.07.26.16.443.259.368.199.886.446 1.538.688 1.305.483 3.152.946 5.414.954 2.722.009 4.621-.462 5.855-.962a7.243 7.243 0 0 0 1.37-.714c.15-.104.268-.197.353-.274.041-.038.081-.077.115-.116a.74.74 0 0 0 .05-.065 1.17 1.17 0 0 0 .279-.741c0-2.142-1.21-4.086-3.209-5.054a.5.5 0 0 0-.436.9c1.66.803 2.645 2.4 2.645 4.154a.204.204 0 0 1-.03.081l-.004.005a.49.49 0 0 0-.066.08l-.016.015a2.413 2.413 0 0 1-.247.19c-.241.165-.627.389-1.18.612-1.103.448-2.872.898-5.475.889a14.777 14.777 0 0 1-5.07-.892 11.07 11.07 0 0 1-1.41-.63 5.857 5.857 0 0 1-.47-.284l-.003-.001A.235.235 0 0 1 2 14.105v-.007c.001-1.74 1.068-3.345 2.653-4.152Z" fill="#7A859E"/></svg>
